industrialandcommercialbankofchina.svg

<?xml version="1.0" encoding="UTF-8"?>
<svg viewBox="0 0 9 8" version="1.1" xmlns="http://www.w3.org/2000/svg" xmlns:xlink="http://www.w3.org/1999/xlink">
    <title>icbc</title>
    <g id="Page-1" stroke="none" stroke-width="1" fill="none" fill-rule="evenodd">
        <path d="M4.59398777,1.90480115e-06 C6.80355519,1.90480115e-06 8.59433484,1.78984277 8.59433484,3.99965482 C8.59433484,6.20946688 6.80355519,8.0000019 4.59398777,8.0000019 C2.38386512,8.0000019 0.594334837,6.20946688 0.594334837,3.99965482 C0.594334837,1.78984277 2.38386512,1.90480115e-06 4.59398777,1.90480115e-06 Z M4.59398777,0.618227266 C2.72714067,0.618227266 1.2135634,2.13345556 1.2135634,3.99965482 C1.2135634,5.86654825 2.72714067,7.38066588 4.59398777,7.38066588 C6.46041844,7.38066588 7.97427334,5.86654825 7.97427334,3.99965482 C7.97427334,2.13345556 6.46041844,0.618227266 4.59398777,0.618227266 Z M6.75150168,1.84579265 L6.75150168,3.69158339 L5.52525978,3.69158339 L5.52525978,4.30619908 L6.75150168,4.30619908 L6.75150168,6.14990732 L4.75778282,6.14990732 L4.75778282,5.53543047 L6.13615978,5.53543047 L6.13615978,4.92095361 L4.90741931,4.92095361 L4.90741931,3.07682887 L6.13615978,3.07682887 L6.13615978,2.46082484 L4.75778282,2.46082484 L4.75778282,1.84579265 L6.75150168,1.84579265 Z M4.44768271,1.84440431 L4.44768271,2.45915884 L3.06583551,2.45915884 L3.06583551,3.07377453 L4.29443717,3.07377453 L4.29443717,4.91956527 L3.06583551,4.91956527 L3.06583551,5.53404213 L4.44768271,5.53404213 L4.44768271,6.14879666 L2.45146528,6.14879666 L2.45146528,4.30439425 L3.67465337,4.30439425 L3.67465337,3.68908439 L2.45146528,3.68908439 L2.45146528,1.84440431 L4.44768271,1.84440431 Z" id="icbc" fill="#CB0202"></path>
    </g>
</svg>

<svg viewBox="0 0 9 8" xmlns="http://www.w3.org/2000/svg"><path d="M4.594 0a4 4 0 1 1 0 8c-2.21 0-4-1.79-4-4s1.79-4 4-4Zm0 .618a3.382 3.382 0 0 0 0 6.763 3.381 3.381 0 0 0 0-6.763Zm2.158 1.228v1.846H5.525v.614h1.227V6.15H4.758v-.615h1.378v-.614H4.907V3.077h1.23V2.46h-1.38v-.615h1.995Zm-2.304-.002v.615H3.066v.615h1.228V4.92H3.066v.614h1.382v.615H2.45V4.304h1.224V3.69H2.45V1.844h1.997Z" fill="#CB0202" fill-rule="evenodd"/></svg>
